src/24/lock-24.svg

<svg baseProfile="tiny" xmlns="http://www.w3.org/2000/svg" viewBox="0 0 24 24"><path d="M20.5 23h-18a.5.5 0 0 1-.5-.5v-15a.5.5 0 0 1 .5-.5h18a.5.5 0 0 1 .5.5v15a.5.5 0 0 1-.5.5zM3 22h17V8H3v14z"/><path d="M17.5 7.5A.5.5 0 0 1 17 7v-.845C17 3.409 14.43 1 11.5 1S6 3.409 6 6.155V7a.5.5 0 0 1-1 0v-.845C5 2.818 7.977 0 11.5 0S18 2.818 18 6.155V7a.5.5 0 0 1-.5.5zM11.5 17.5a.5.5 0 0 1-.5-.5v-3a.5.5 0 0 1 1 0v3a.5.5 0 0 1-.5.5z"/><path d="M12.867 12.324a1.314 1.314 0 1 1-2.628-.002 1.314 1.314 0 0 1 2.628.002z"/><path d="M11.554 14.137c-1 0-1.813-.813-1.813-1.813s.813-1.813 1.813-1.813 1.813.813 1.813 1.813-.813 1.813-1.813 1.813zm0-2.626a.814.814 0 1 0 .001 1.625.814.814 0 0 0-.001-1.625z"/></svg>

<?xml version="1.0" encoding="iso-8859-1"?>
<!-- Generator: Adobe Illustrator 19.1.0, SVG Export Plug-In . SVG Version: 6.00 Build 0)  -->
<!DOCTYPE svg PUBLIC "-//W3C//DTD SVG 1.1 Tiny//EN" "http://www.w3.org/Graphics/SVG/1.1/DTD/svg11-tiny.dtd">
<svg version="1.1" baseProfile="tiny" id="Layer_1" xmlns="http://www.w3.org/2000/svg" xmlns:xlink="http://www.w3.org/1999/xlink"
	 x="0px" y="0px" viewBox="0 0 24 24" xml:space="preserve">
<path d="M20.5,23h-18C2.224,23,2,22.776,2,22.5v-15C2,7.224,2.224,7,2.5,7h18C20.776,7,21,7.224,21,7.5v15
	C21,22.776,20.776,23,20.5,23z M3,22h17V8H3V22z"/>
<path d="M17.5,7.5C17.224,7.5,17,7.276,17,7V6.155C17,3.409,14.43,1,11.5,1S6,3.409,6,6.155V7c0,0.276-0.224,0.5-0.5,0.5
	S5,7.276,5,7V6.155C5,2.818,7.977,0,11.5,0S18,2.818,18,6.155V7C18,7.276,17.776,7.5,17.5,7.5z"/>
<path d="M11.5,17.5c-0.276,0-0.5-0.224-0.5-0.5v-3c0-0.276,0.224-0.5,0.5-0.5S12,13.724,12,14v3C12,17.276,11.776,17.5,11.5,17.5z"
	/>
<g>
	<path d="M12.867,12.324c0,0.723-0.587,1.313-1.313,1.313c-0.726,0-1.313-0.59-1.313-1.313c0-0.728,0.587-1.313,1.313-1.313
		C12.28,11.011,12.867,11.595,12.867,12.324z"/>
	<path d="M11.554,14.137c-1,0-1.813-0.813-1.813-1.813c0-1,0.813-1.813,1.813-1.813c1,0,1.813,0.813,1.813,1.813
		C13.367,13.324,12.554,14.137,11.554,14.137z M11.554,11.511c-0.448,0-0.813,0.365-0.813,0.813c0,0.449,0.365,0.813,0.813,0.813
		c0.449,0,0.813-0.365,0.813-0.813C12.367,11.875,12.002,11.511,11.554,11.511z"/>
</g>
</svg>
